src/images/icons/noun_Home_2140138.svg

<svg xmlns="http://www.w3.org/2000/svg" viewBox="0 0 64 80"><path d="M48 28H34v14h14zm-2 6h-4v-4h4zm-6-4v4h-4v-4zm-4 6h4v4h-4zm6 4v-4h4v4zM26 38h2v6h-2z"/><path d="M62 44c0-3.976-1.374-8-4-8s-4 4.024-4 8c0 3.435 1.028 6.9 3 7.781V54h-5V26h9a1 1 0 00.6-1.8l-29-22a1 1 0 00-1.208 0l-29 22A1 1 0 003 26h9v28H7v-2.219c1.972-.881 3-4.346 3-7.781 0-3.976-1.374-8-4-8s-4 4.024-4 8c0 3.435 1.028 6.9 3 7.781V54H2v8h60v-8h-3v-2.219c1.972-.881 3-4.346 3-7.781zM4 44c0-3.722 1.3-6 2-6s2 2.278 2 6-1.295 6-2 6-2-2.278-2-6zm1.973-20L32 4.255 58.027 24zM14 26h36v28H32V36a8 8 0 00-16 0v18h-2zm16 28H18V36a6 6 0 0112 0zm30 6H4v-4h56zm-4-16c0-3.722 1.3-6 2-6s2 2.278 2 6-1.3 6-2 6-2-2.278-2-6z"/></svg>

<svg xmlns="http://www.w3.org/2000/svg" viewBox="0 0 64 80" x="0px" y="0px"><g><path d="M48,28H34V42H48Zm-2,6H42V30h4Zm-6-4v4H36V30Zm-4,6h4v4H36Zm6,4V36h4v4Z"/><rect x="26" y="38" width="2" height="6"/><path d="M62,44c0-3.976-1.374-8-4-8s-4,4.024-4,8c0,3.435,1.028,6.9,3,7.781V54H52V26h9a1,1,0,0,0,.6-1.8l-29-22a1,1,0,0,0-1.208,0l-29,22A1,1,0,0,0,3,26h9V54H7V51.781C8.972,50.9,10,47.435,10,44c0-3.976-1.374-8-4-8s-4,4.024-4,8c0,3.435,1.028,6.9,3,7.781V54H2v8H62V54H59V51.781C60.972,50.9,62,47.435,62,44ZM4,44c0-3.722,1.3-6,2-6s2,2.278,2,6-1.295,6-2,6S4,47.722,4,44ZM5.973,24,32,4.255,58.027,24ZM14,26H50V54H32V36a8,8,0,0,0-16,0V54H14ZM30,54H18V36a6,6,0,0,1,12,0Zm30,6H4V56H60ZM56,44c0-3.722,1.3-6,2-6s2,2.278,2,6-1.3,6-2,6S56,47.722,56,44Z"/></g></svg>
